X:1
T:Title
%%score { 1 | 2 }
L:1/8
Q:1/4=90
M:6/8
K:F
V:1 treble nm="Grand Piano"
V:2 bass 
V:1
 c>BA [EG]2 E | F3 A2 A | B2 d c2 B | A6 | c>BA [EG]2 E | F3 A2 A | =B2 A G2 F | E6 | %8
w: Charles~F.~Allen * * * *||||||||
 [CAc]>[CGB][CFA] [CAc]3 | [DFA]>[A,EG][A,DF] [DFA]3 | [=B,FG]>[B,DG][CEG] [DF=B]2 [B,FG] | %11
w: |||
 [CEc]6 | [CFA]>[B,EG][A,F] [B,EG]2 [A,CF] | [CFA]3 [Fc]2 [Fd] | [Fc]2 [B,FB] [CFA]2 [B,EG] | %15
w: ||||
 [F,A,CF]6 |] %16
w: |
V:2
 [F,A,F]>[F,DF][F,CF] [C,C]2 [C,B,C] | [F,A,C]3[K:treble] [F,CF]2 [F,CF] | %2
 [B,DF]2 [B,F] [A,CF]2[K:bass] [G,CE] | [F,CF]6 | [F,A,F]>[F,DF][F,CF] [C,C]2 [C,B,C] | %5
 [F,A,C]3[K:treble] [F,CF]2 [F,CF] | [G,D]2 [G,=B,F] [G,CE]2[K:bass] [G,B,D] | [C,C]6 | %8
 F,>F,F, F,3 | D,>D,D, D,3 | D,>G,G, G,2 G, | C,6 | F,>F,F, C,2 F, | F,3 [F,A,]2 [B,,B,] | %14
 [C,A,]2 D, C,2 C, | F,,6 |] %16

